X: 1911
T: The Sword Dance
B: australian traditional tunes wiki
M:4/4
L:1/8
R: Set Tune
Q: 1/4=100
K:Am
V:1 
|:"C"C2A2GECD|"Am"E2D2E2D2|"C"C2A2GECD|"Am"E2D2"G7"D4|
"C"C2A2GECD|"Am"E2D2E2G2|"Dm"A3B AGAB|"C"c2E2"G7"D4:|
|:"C"C2c2"Am"AGAB|AcABA2G2|"C"C2c2"Am"AGAB|AGEC"G7"D4|
"C"C2c2"Am"AGAB|AcABA2G2|"Dm"A3BA2G2|"C"c2E2"G7"D4:|
% abcbook-tune_id 6342d53aac91a7bb7c9b5626


% abcbook-boost 0
% abcbook-tablature 
% abcbook-transpose 
% abcbook-lastupdated 1665324392377
% abcbook-soundfonts 
% abcbook-repeats 1
% NFF Book 2010

